T: Angus Young's
M: 4/4
L: 1/8
K: Amix
|: c>A (3AAA c<Ae>A | c>A (3AAA d>BG<B ||: c<ee>f e<c a2 | c<e (3eee d>BG<B || A6 z2 ||
